src/categories-icons-sprite/categories/svg-cat-hobby-collect.svg

<svg width="34" height="34" viewBox="0 0 34 34" fill="none" xmlns="http://www.w3.org/2000/svg">
<path class="p-CCF8F3" d="M13.5 0C15.433 0 17 1.567 17 3.5C17 1.567 18.567 0 20.5 0C22.433 0 24 1.567 24 3.5C24 5.433 22.433 7 20.5 7C19.808 7 18 7 18 7L17 8.0002L16 7C16 7 14.192 7 13.5 7C11.567 7 9.99999 5.433 9.99999 3.5C9.99999 1.567 11.567 0 13.5 0Z" fill="#A1D1FD"/>
<path class="p-00D7DF" d="M17 3.5C17 4.2195 17 7 17 7C17 7 19.2865 7 20.5 7C22.433 7 24 5.433 24 3.5C24 1.567 22.433 0 20.5 0C18.567 0 17 1.567 17 3.5Z" fill="#5FBEFF"/>
<path class="p-FFFFFF" d="M20.5 5C21.3271 5 22 4.3271 22 3.5C22 2.6729 21.3271 2 20.5 2C19.6729 2 19 2.6729 19 3.5V5H20.5Z" fill="white"/>
<path class="p-FFFFFF" d="M13.5 5C12.6729 5 12 4.3271 12 3.5C12 2.6729 12.6729 2 13.5 2C14.3271 2 15 2.6729 15 3.5V5H13.5Z" fill="white"/>
<path class="p-00D7DF" d="M15.5 7H17H18.5C19.3284 7 20 7.6716 20 8.5C20 9.3284 19.3284 9.99999 18.5 9.99999H17H15.5C14.6716 9.99999 14 9.3284 14 8.5C14 7.6716 14.6716 7 15.5 7Z" fill="#5FBEFF"/>
<path class="p-00A0A6" d="M17 7H18.5C19.3284 7 20 7.6716 20 8.5C20 9.3284 19.3284 9.99999 18.5 9.99999H17V7Z" fill="#4D98CB"/>
<path class="p-EA348B" d="M4.1531 20C5.1152 13.7698 10.5005 9 17 9C23.4995 9 28.8848 13.7698 29.8469 20C32.1406 20 34 21.8594 34 24.1531V26.6667C34 28.5076 32.5076 30 30.6667 30H17H3.33333C1.49239 30 0 28.5076 0 26.6667V24.1531C0 21.8594 1.85941 20 4.1531 20Z" fill="#A1D1FD"/>
<path class="p-00A0A6" d="M9 34C5.68629 34 3 31.3137 3 28C3 24.6863 5.68629 22 9 22C12.3137 22 15 24.6863 15 28C15 31.3137 12.3137 34 9 34Z" fill="#5FBEFF"/>
<path class="p-006C70" d="M9 34C12.3138 34 15 31.3138 15 28C15 24.6862 12.3138 22 9 22" fill="#4D98CB"/>
<path class="p-00D7DF" d="M8.99999 30.75C7.48121 30.75 6.24999 29.5188 6.24999 28C6.24999 26.4812 7.48121 25.25 8.99999 25.25C10.5188 25.25 11.75 26.4812 11.75 28C11.75 29.5188 10.5188 30.75 8.99999 30.75Z" fill="#B9DFFC"/>
<path class="p-00A0A6" d="M8.99999 30.75C10.5189 30.75 11.75 29.5187 11.75 28C11.75 26.4813 10.5189 25.25 8.99999 25.25" fill="#5FBEFF"/>
<path class="p-AF2768" d="M29.8469 20C32.1406 20 34 21.8594 34 24.1531V26.6667C34 28.5076 32.5076 30 30.6667 30H17C17 30 17 9.7551 17 9C23.4995 9 28.8848 13.7698 29.8469 20ZM19 20H26.7998C26.0044 16.0818 22.9182 12.9956 19 12.2002V20Z" fill="#65B3E7"/>
<path class="p-00D7DF" d="M26.7998 20.0002H19V12.2004C22.9182 12.9958 26.0044 16.082 26.7998 20.0002Z" fill="#A1D1FD"/>
<path class="p-CCF8F3" d="M7.2002 20.0002H15V12.2004C11.0818 12.9958 7.9956 16.082 7.2002 20.0002Z" fill="#B9DFFC"/>
<path class="p-00A0A6" d="M25 34C21.6863 34 19 31.3137 19 28C19 24.6863 21.6863 22 25 22C28.3137 22 31 24.6863 31 28C31 31.3137 28.3137 34 25 34Z" fill="#5FBEFF"/>
<path class="p-006C70" d="M25 34C28.3138 34 31 31.3138 31 28C31 24.6862 28.3138 22 25 22" fill="#4D98CB"/>
<path class="p-00D7DF" d="M25 30.75C23.4812 30.75 22.25 29.5188 22.25 28C22.25 26.4812 23.4812 25.25 25 25.25C26.5188 25.25 27.75 26.4812 27.75 28C27.75 29.5188 26.5188 30.75 25 30.75Z" fill="#A1D1FD"/>
<path class="p-00A0A6" d="M25 30.75C26.5188 30.75 27.75 29.5187 27.75 28C27.75 26.4813 26.5188 25.25 25 25.25" fill="#5FBEFF"/>
</svg>

<svg width="34" height="34" fill="none" xmlns="http://www.w3.org/2000/svg"><path class="p-CCF8F3" d="M13.5 0A3.5 3.5 0 0117 3.5 3.5 3.5 0 1120.5 7H18l-1 1-1-1h-2.5a3.5 3.5 0 110-7z" fill="#A1D1FD"/><path class="p-00D7DF" d="M17 3.5V7h3.5A3.5 3.5 0 1017 3.5z" fill="#5FBEFF"/><path class="p-FFFFFF" d="M20.5 5c.827 0 1.5-.673 1.5-1.5S21.327 2 20.5 2 19 2.673 19 3.5V5h1.5zM13.5 5c-.827 0-1.5-.673-1.5-1.5S12.673 2 13.5 2s1.5.673 1.5 1.5V5h-1.5z" fill="#fff"/><path class="p-00D7DF" d="M15.5 7h3a1.5 1.5 0 010 3h-3a1.5 1.5 0 010-3z" fill="#5FBEFF"/><path class="p-00A0A6" d="M17 7h1.5a1.5 1.5 0 010 3H17V7z" fill="#4D98CB"/><path class="p-EA348B" d="M4.153 20C5.115 13.77 10.501 9 17 9c6.5 0 11.885 4.77 12.847 11A4.153 4.153 0 0134 24.153v2.514A3.333 3.333 0 0130.667 30H3.333A3.333 3.333 0 010 26.667v-2.514A4.153 4.153 0 014.153 20z" fill="#A1D1FD"/><path class="p-00A0A6" d="M9 34a6 6 0 110-12 6 6 0 010 12z" fill="#5FBEFF"/><path class="p-006C70" d="M9 34a6 6 0 100-12" fill="#4D98CB"/><path class="p-00D7DF" d="M9 30.75a2.75 2.75 0 110-5.5 2.75 2.75 0 010 5.5z" fill="#B9DFFC"/><path class="p-00A0A6" d="M9 30.75a2.75 2.75 0 100-5.5" fill="#5FBEFF"/><path class="p-AF2768" d="M29.847 20A4.153 4.153 0 0134 24.153v2.514A3.333 3.333 0 0130.667 30H17V9c6.5 0 11.885 4.77 12.847 11zM19 20h7.8a10.012 10.012 0 00-7.8-7.8V20z" fill="#65B3E7"/><path class="p-00D7DF" d="M26.8 20H19v-7.8a10.012 10.012 0 017.8 7.8z" fill="#A1D1FD"/><path class="p-CCF8F3" d="M7.2 20H15v-7.8A10.012 10.012 0 007.2 20z" fill="#B9DFFC"/><path class="p-00A0A6" d="M25 34a6 6 0 110-12 6 6 0 010 12z" fill="#5FBEFF"/><path class="p-006C70" d="M25 34a6 6 0 100-12" fill="#4D98CB"/><path class="p-00D7DF" d="M25 30.75a2.75 2.75 0 110-5.5 2.75 2.75 0 010 5.5z" fill="#A1D1FD"/><path class="p-00A0A6" d="M25 30.75a2.75 2.75 0 000-5.5" fill="#5FBEFF"/></svg>
